X:1   
T: FF6 Lute   
C:   
Q:1/4=170    
V:1   
M:4/4    
L:1/8    
K:Bb
DD DD DD CC |DD DD DD CC |DD DD EE EE |DD DD EE EE |DD DD EE EE |DD DD EE EE |DD DD EE EE |DD DD EE EE |DD DD EE EE |DD DD EE EE |DD D2 EE E2 |D2 D C2 C E/D3/2 |DD D2 EE E2 |D2 D C2 C E2 |DD AD EE BE |
dA D C2 E _A/D/c |DD AD EE BE |dA D C2 E _Ac |DD DD EE EE |DD DD EE EE |DD DD EE EE |DD DD EE EE |DD DD EE EE |DD DD EE EE |DD DD EE EE |DD DD EE EE |DD z2 DD z2 |DD z2 DD z2 |ED FE D A,2 C-|CD E/D/C DE GB |
DD z2 DD z2 |DD z2 DD z2 |D,2 D3 A, D,E,-|E,E, E2 EB, G,E, |F,F, FF, FC A,F, |DD, D,D D,D, DD, |D,D D,D, F2 E2 |DD, D,D D,D, D,A,- |A,2 =E A2 A, GE |DD DD EE EE |DD DD EE EE |DD DD EE EE |DD DD EE EE |
DD DD EE EE |DD DD EE EE |DD DD EE EE |DD DD EE EE |DD D2 EE E2 |D2 D C2 C E/D3/2 |DD D2 EE E2 |D2 D C2 C E2 |DD AD EE BE |dA D C2 E _A/D/c |DD AD EE BE |dA D C2 E _Ac |DD DD EE EE |DD DD EE EE |DD DD EE EE |
DD DD EE EE |DD DD EE EE |DD DD EE EE |DD DD EE EE |DD DD EE EE |DD z2 DD z2 |DD z2 DD z2 |ED FE D A,2 C-|CD E/D/C DE GB |DD z2 DD z2 |DD z2 DD z2 |D,2 D3 A, D,E,-|E,E, E2 EB, G,E, |F,F, FF, FC A,F, |
DD, D,D D,D, DD, |D,D D,D, F2 E2 |DD, D,D D,D, D,A,- |A,2 =E A2 A, GE |A,A,/A,/ DA,/A,/ A,/A,/E AA,/A,/ |A,A,/A,/ DA,/A,/ A,/A,/A E2 |A,A,/A,/ DA,/A,/ A,/A,/E AA,/A,/ |A,A,/A,/ DA,/A,/ A,/A,/A E2 |A,A,/A,/ DA,/A,/ A,/A,/E AA,/A,/ |
A,A,/A,/ DA,/A,/ A,/A,/A E2 |A,A,/A,/ DA,/A,/ A,/A,/E AA,/A,/ |A,A,/A,/ DA,/A,/ A,/A,/A E2 |GG G2 _AA A2 |G2 G F2 F _A2 |GG G2 _AA A2 |G2 G F2 F _A2 |GG dG _AA eA |gd G F2 _A _df |GG dG _AA eA |gd G F2 _A _df |
D z7 |]
